X:1
T:Tweedledum and Tweedledee
T:Tweedledum and Tweedledee
T:A Cheerful Glee for four Voices
T:Peter Hellendaal
C:Peter Hellendaal
%%score [ 1 2 3 4 ]
L:1/8
Q:1/4=180
M:2/2
K:C
V:1 treble-8 nm="Tenor 1" snm="T1"
V:2 treble-8 nm="Tenor 2" snm="T2"
V:3 bass nm="Baritone" snm="Bar."
V:4 bass nm="Bass" snm="B."
V:1
"^Allegro con Spirito"!mf! c8 | c6 c2 | c6 c2 | (d4- de) f2 | (ed) c2 z4 |!p! (d4- de) f2 | %6
w: Some|say that|sig- nor|Bo- * * non-|ci- * ni,|Bo- * * non-|
 (ed) c2 z4 | z4!mf! d2 e2 | c6 c2 | f2 f2 z2 f2 | d6 d2 | g2 g2 z2 g2 | e2 c2 z2 cc |!f! c8 | %14
w: ci- * ni,|when com-|par'd to|Han- del, com-|par'd to|Han- del, to|Han- del is a|mere|
!p! BB z2 z2 dd |!f! d8 |!p! cc z2 z2 z _e |!f! e8 |!p! dd z2 z2 z f |!f! f8 |!p! ee z2 z2!mf! g2 | %21
w: Nin- ny, is a|mere|Nin- ny, a|mere|Nin- ny, a|mere|Nin- ny, a|
 ff e2 dd c2 | BB A2 GG f2 | ee d2 cc B2 | AA G2 ^FF e2 | dd c2 BB A2 | GG F2 EE d2 | cc z2 z2 B2 | %28
w: Nin- ny, a Nin- ny, a|Nin- ny, a Nin- ny, a|Nin- ny, a Nin- ny, a|Nin- ny, a Nin- ny, a|Nin- ny, a Nin- ny, a|Nin- ny, a Nin- ny, a|Nin- ny, a|
!p! cc z2 z4 | z4 z2 B2 |!pp! cc z2 z4 |!mf! d4 d2 d2 | d6 g2 | g6 ^f2 | g2 d2 z2 g2 | g6 ^f2 | %36
w: Nin- ny,|a|Nin- ny,|O- thers a-|ver that|to him|Han- del, that|to him|
 g2 d2 z4 | z2 G2 B2 G2 | c2 z2 z4 | z2 A2 c2 A2 | d2 z2 z4 | z2 B2 d2 B2 | e2 z2 z4 | %43
w: Han- del|is on- ly|fit,|is on- ly|fit,|is on- ly|fit,|
 z2 c2 e2 c2 | f2 z2 z4 | z2 d2 f2 d2 | g2 z2 z2 g2 | g6 B2 | c2 G2 z2 g2 | g6 B2 | %50
w: is on- ly|fit,|is on- ly|fit to|hold the|can- dle, to|hold the|
 c2 G2 z2!p! B2 | c2 c2 z4 |!mf! e4 e2 e2 | e6 d2 | c4 B4 | A6 ^G2 | A6 B2 | c4 d4 | e6 ^G2 | %59
w: can- dle, the|can- dle.|Strange that such|high dis-|putes should|be, such|high dis-|putes should|be 'twixt|
 A3 B c2 A2 | B3 c d2 B2 | c3 d e2 c2 | d3 e f2 d2 | e3 e e2 ee | e6 z2 | z8 | z4 z2"^Pomposo" e2 | %67
w: Twee- dle- dum and|Twee- dle- dee, twixt|Twee- dle- dum and|Twee- dle- dee, and|Twee- dle- dee, Twee- dle-|dee||'twixt|
 d3 c B2 d2 | c3 B A2 c2 | B3 A ^G2 ee | !fermata!e8 | z4 z2 e2 | f3 g a2 z2 | z4 z2 d2 | %74
w: Twee- dle- dum and|Twee- dle- dee and|Twee- dle- dee, Twee- dle-|dee|and|Twee- dle- dee,|and|
 e3 f g2 z2 | z2 ef g2 z2 | z2 ef g2 z2 | z2 gg g2 gg | g2 gg g2 z2 | g6 z2 | z4 z2 de | f6 z2 | %82
w: Twee- dle- dee,|Twee- dle- dee,|Twee- dle- dee,|Twee- dle- dee, Twee- dle-|dee, Twee- dle- dee,|dee|Twee- dle-|dee,|
 z4 z2 cd | _e6 ee | d4 z2 fe | d4 z2 fe | d2 dd d2 dd | d6 z2 | e2 ee e2 e2 | f2 f2 f4 | %90
w: Twee- dle-|dee, Twee- dle-|dee, Twee- dle-|dee, Twee- dle-|dee, Twee- dle- dee, Twee- dle-|dee.|Strange that such high dis-|putes should be|
 ^f2 ff f2 f2 |!p! g6 g2 | g4 z2!mf! g2 | gf !wedge!e2 fe !wedge!d2 | ed !wedge!c2 dc !wedge!B2 | %95
w: 'twixt Twee- dle- dum and|Twee- dle-|dee, 'twixt|Twee- dle- dum, Twee- dle- dum,|Twee- dle- dum, Twee- dle- dum,|
 cd !wedge!e2 de !wedge!f2 | ed !wedge!c2 z2!p! e2 | ed !wedge!c2 dc !wedge!B2 | %98
w: Twee- dle- dum, Twee- dle- dum,|Twee- dle- dum and|Twee- dle- dee, Twee- dle- dee,|
 cB !wedge!A2 BA !wedge!^G2 | AB !wedge!c2 Bc !wedge!d2 | cB !wedge!A2 z4 | z4!f! a4 | g6 f2 | %103
w: Twee- dle- dee, Twee- dle- dee,|Twee- dle- dee, Twee- dle- dee,|Twee- dle- dee,|and|Twee- dle-|
 e8 |] %104
w: dee.|
V:2
!mf! G8 | G6 G2 | G6 c2 | c6 B2 | c2 G2 z4 |!p! c6 B2 | c2 G2 z4 | z4!mf! c2 c2 | A6 A2 | %9
w: Some|say that|sig- nor|Bo- non-|ci- ni,|Bo- non-|ci- ni,|when com-|par'd to|
 d2 d2 z2 d2 | B6 B2 | e2 e2 z2 c2 | c2 G2 z4 | z8 | z8 | z8 | z4 z2 z c |!f! c8 | %18
w: Han- del, com-|par'd to|Han- del, to|Han- del||||a|mere|
!p! BB z2 z2 z d |!f! d8 |!p! cc z2 z4 | z8 | z4 z2!mf! d2 | cc B2 AA G2 | ^FF E2 DD c2 | %25
w: Nin- ny, a|mere|Nin- ny,||a|Nin- ny, a Nin- ny, a|Nin- ny, a Nin- ny, a|
 BB A2 GG F2 | EE D2 CC F2 | EE z2 z2 F2 |!p! EE z2 z4 | z4 z2 F2 |!pp! EE z2 z4 |!mf! B4 B2 B2 | %32
w: Nin- ny, a Nin- ny, a|Nin- ny, a Nin- ny, a|Nin- ny, a|Nin- ny,|a|Nin- ny,|O- thers a-|
 B6 d2 | d6 d2 | d2 B2 z2 d2 | d6 d2 | d2 B2 d2 B2 | G2 E2 z4 | z2 E2 G2 E2 | A2 z2 z4 | %40
w: ver that|to him|Han- del, that|to him|Han- del, to him|Han- del|is on- ly|fit,|
 z2 F2 A2 F2 | B2 z2 z4 | z2 G2 B2 G2 | c2 z2 z4 | z2 A2 c2 A2 | d2 z2 z4 | z2 B2 d2 B2 | %47
w: is on- ly|fit,|is on- ly|fit,|is on- ly|fit,|is on- ly|
 e2 z2 z2 d2 | e6 B2 | c2 G2 z2 d2 | e6!p! d2 | e2 e2 z4 |!mf! c4 c2 c2 | c6 B2 | E4 B4 | c6 B2 | %56
w: fit to|hold the|can- dle, to|hold the|can- dle,|Strange that such|high dis-|putes should|be, such|
 A6 ^G2 | A4 A4 | B6 z2 | z8 | z8 | z8 | z8 | z8 | z8 | z8 | z4 z2"^Pomposo" A2 | B3 c d2 B2 | %68
w: high dis-|putes should|be||||||||'twixt|Twee- dle- dum and|
 c3 d e2 E2 | ^G3 A B2 BB | !fermata!B8 | z4 z2 c2 | d3 e f2 z2 | z4 z2 B2 | c3 d e2 z2 | %75
w: Twee- dle- dee and|Twee- dle- dee, Twee- dle-|dee|and|Twee- dle- dee,|and|Twee- dle- dee,|
 z2 cd e2 z2 | z2 cd e2 z2 | z2 cc c2 ee | e2 ed c2 z2 | e6 z2 | z4 z2 B^c | d6 z2 | z4 z2 AB | %83
w: Twee- dle- dee,|Twee- dle- dee,|Twee- dle- dee, Twee- dle-|dee, Twee- dle- dee,|dee|Twee- dle-|dee,|Twee- dle-|
 c6 cc | B4 z2 dc | B4 z2 dc | B2 BB B2 BB | B6 z2 | ^c2 cc c2 c2 | d2 d2 d4 | _e2 ee e2 e2 | %91
w: dee, Twee- dle-|dee, Twee- dle-|dee, Twee- dle-|dee, Twee- dle- dee, Twee- dle-|dee.|Strange that such high dis-|putes should be|'twixt Twee- dle- dum and|
!p! d6 d2 | d4 z2!mf! d2 | ed !wedge!c2 dc !wedge!B2 | cd !wedge!e2 de !wedge!f2 | %95
w: Twee- dle-|dee, 'twixt|Twee- dle- dum, Twee- dle- dum,|Twee- dle- dum, Twee- dle- dum,|
 ef !wedge!g2 fe !wedge!d2 | ef !wedge!g2 z2!p! B2 | cB !wedge!A2 BA !wedge!^G2 | %98
w: Twee- dle- dum, Twee- dle- dum,|Twee- dle- dum and|Twee- dle- dee, Twee- dle- dee,|
 AB !wedge!c2 Bc !wedge!d2 | cd !wedge!e2 dc !wedge!B2 | cd !wedge!e2 z4 | z4!f! _e4 | d6 G2 | %103
w: Twee- dle- dee, Twee- dle- dee,|Twee- dle- dee, Twee- dle- dee,|Twee- dle- dee,|and|Twee- dle-|
 G8 |] %104
w: dee.|
V:3
!mf! E,8 | E,6 E,2 | E,6 G,2 | G,6 G,2 | G,2 E,2 z4 |!p! G,6 G,2 | G,2 E,2 z4 | z4!mf! G,2 G,2 | %8
w: Some|say that|sig- nor|Bo- non-|ci- ni,|Bo- non-|ci- ni,|when com-|
 F,6 F,2 | A,2 A,2 z2 A,2 | G,6 B,2 | C2 C2 z2 G,2 | G,2 E,2 z4 | z8 | z8 | z8 | z4 z2 z A, | %17
w: par'd to|Han- del, com-|par'd to|Han- del, to|Han- del||||a|
!f! A,8 |!p! G,G, z2 z2 z _A, |!f! A,8 |!p! G,G, z2 z4 | z8 | z8 | z8 | z8 | z8 | z4 z2!mf! F,2 | %27
w: mere|Nin- ny, a|mere|Nin- ny,||||||a|
 G,G, z2 z2 F,2 |!p! G,G, z2 z4 | z4 z2 F,2 |!pp! G,G, z2 z4 |!mf! G,4 G,2 G,2 | G,6 G,2 | %33
w: Nin- ny, a|Nin- ny,|a|Nin- ny,|O- thers a-|ver that|
 (A,4- A,B,) C2 | (B,A,) G,2 z2 G,2 | (A,4- A,B,) C2 | (B,A,) G,2 G,2 G,2 | E,2 C,2 z4 | z8 | %39
w: to _ _ him|Han- * del, that|to _ _ him|Han- * del, to him|Han- del||
 z2 F,2 A,2 F,2 | D,2 z2 z4 | z2 G,2 B,2 G,2 | E,2 z2 z4 | z2 A,2 C2 A,2 | F,2 z2 z4 | %45
w: is on- ly|fit,|is on- ly|fit,|is on- ly|fit,|
 z2 B,2 D2 B,2 | G,2 z2 z2 G,2 | G,6 G,2 | G,2 E,2 z2 G,2 | G,6 G,2 | G,2 E,2 z2!p! G,2 | %51
w: is on- ly|fit to|hold the|can- dle, to|hold the|can- dle, the|
 G,2 G,2 z4 |!mf! A,4 A,2 A,2 | A,6 ^G,2 | A,4 F,4 | E,6 F,2 | E,6 D,2 | E,4 A,4 | ^G,6 z2 | z8 | %60
w: can- dle.|Strange that such|high dis-|putes should|be, such|high dis-|putes should|be||
 z8 | z8 | z8 | z8 | z8 | z8 | z4 z2"^Pomposo" A,2 | ^G,3 A, B,2 G,2 | A,3 ^G, A,2 A,2 | %69
w: ||||||'twixt|Twee- dle- dum and|Twee- dle- dee and|
 E,3 ^F, ^G,2 G,G, | !fermata!G,8 | E2 ED C2 z2 | z8 | D2 DC B,2 z2 | z4 z2 B,A, | G,2 z2 z2 E,E, | %76
w: Twee- dle- dee, Twee- dle-|dee|'twixt Twee- dle- dum||'twixt Twee- dle- dum|Twee- dle-|dum, Twee- dle-|
 E,2 z2 z2 E,E, | E,2 E,F, G,2 CC | C2 CD E2 z2 | z4 z2 GF | E6 z2 | z4 z2 FE | D6 z2 | %83
w: dum, Twee- dle-|dum, Twee- dle- dum, Twee- dle-|dum, Twee- dle- dum,|Twee- dle-|dee,|Twee- dle-|dee,|
 z4 z2 A,A, | G,2 G,G, G,2 G,G, | G,2 G,G, G,2 G,G, | G,2 G,G, G,2 G,G, | G,6 z2 | %88
w: Twee- dle-|dum, Twee- dle- dum, Twee- dle-|dum, Twee- dle- dum, Twee- dle-|dum, Twee- dle- dum, Twee- dle-|dum.|
 G,2 G,G, G,2 G,2 | A,2 A,2 A,4 | A,2 A,A, A,2 A,2 |!p! G,6 G,2 | G,4 z2!mf! G,2 | G,6 G,2 | %94
w: Strange that such high dis-|putes should be|'twixt Twee- dle- dum and|Twee- dle-|dee, 'twixt|Twee- dle-|
 G,6 G,2 | G,6 G,2 | G,4 z2!p! E,2 | E,6 E,2 | E,6 E,2 | E,6 E,2 | E,4 z4 | z4!f! C4 | C6 B,2 | %103
w: dum and|Twee- dle-|dee, and|Twee- dle-|dee, and|Twee- dle-|dee,|and|Twee- dle-|
 C8 |] %104
w: dee.|
V:4
!mf! C,8 | C,6 C,2 | C,6 E,2 | G,6 G,2 | C2 C,2 z4 |!p! G,6 G,2 | C2 C,2!mf! G,2 G,2 | %7
w: Some|say that|sig- nor|Bo- non-|ci- ni,|Bo- non-|ci- ni, Bo- non-|
 E,2 E,2 C,2 C,2 | F,6 F,2 | D,2 D,2 z2 D,2 | G,6 G,2 | E,2 E,2 z2 E,2 | C,2 C,2 z2 ^F,F, | %13
w: ci- ni, when com-|par'd to|Han- del, com-|par'd to|Han- del, to|Han- del is a|
!f! F,8 |!p! G,G, z2 z2 ^G,G, |!f! G,8 |!p! A,A, z2 z2 z ^F, |!f! F,8 |!p! G,G, z2 z2 z B,, | %19
w: mere|Nin- ny, is a|mere|Nin- ny, a|mere|Nin- ny, a|
!f! B,,8 |!p! C,C, z2 z4 | z8 | z8 | z8 | z4 z2!mf! ^F,2 | G,G, z2 z4 | z4 z2 B,,2 | %27
w: mere|Nin- ny,||||a|Nin- ny,|a|
 C,C, z2 z2 D,2 |!p! C,C, z2 z4 | z4 z2 D,2 |!pp! C,C, z2 z4 |!mf! G,,4 G,,2 G,,2 | G,,6 B,,2 | %33
w: Nin- ny, a|Nin- ny,|a|Nin- ny,|O- thers a-|ver that|
 D,6 D,2 | G,2 G,,2 z2 B,,2 | D,6 D,2 | G,2 G,,2 B,,2 G,,2 | C,2 C,2 z4 | z2 C,2 E,2 C,2 | %39
w: to him|Han- del, that|to him|Han- del, to him|Han- del|is on- ly|
 F,2 z2 z4 | z2 D,2 F,2 D,2 | G,2 z2 z4 | z2 E,2 G,2 E,2 | A,2 z2 z4 | z2 F,2 A,2 F,2 | B,2 z2 z4 | %46
w: fit,|is on- ly|fit,|is on- ly|fit,|is on- ly|fit,|
 z2 G,2 B,2 G,2 | C2 z2 z2 G,2 | C6 G,2 | E,2 C,2 z2 G,2 | C6!p! G,2 | E,2 C,2 z4 | %52
w: is on- ly|fit to|hold the|can- dle, to|hold the|can- dle.|
!mf! A,,4 A,,2 A,,2 | A,,6 B,,2 | C,4 D,4 | E,6 D,2 | C,6 B,,2 | A,,4 F,4 | E,6 z2 | z8 | z8 | z8 | %62
w: Strange that such|high dis-|putes should|be, such|high dis-|putes should|be||||
 z8 | z8 | z4 z2"^Pomposo" E2 | D3 C B,2 D2 | C3 B, A,2 C2 | B,3 A, ^G,2 B,2 | A,3 B, C2 A,2 | %69
w: ||'twixt|Twee- dle- dum and|Twee- dle- dee, 'twixt|Twee- dle- dum and|Twee- dle- dee and|
 ^G,3 ^F, E,2 E,E, | !fermata!E,8 | C2 CB, A,2 z2 | z8 | B,2 B,A, G,2 z2 | z4 z2 G,F, | %75
w: Twee- dle- dee, Twee- dle-|dee|'twixt Twee- dle- dum||'twixt Twee- dle- dum|Twee- dle-|
 E,2 z2 z2 C,C, | C,2 z2 z2 C,C, | C,2 C,D, E,2 E,F, | G,2 A,B, C2 z2 | z4 z2 E,D, | ^C,6 z2 | %81
w: dum, Twee- dle-|dum, Twee- dle-|dum, Twee- dle- dum, Twee- dle-|dum, Twee- dle- dum,|Twee- dle-|dee,|
 z4 z2 D,C, | B,,6 z2 | z4 z2 ^F,F, | G,2 G,,G,, G,,2 G,,A,, | B,,2 B,,C, D,2 D,E, | %86
w: Twee- dle-|dee,|Twee- dle-|dum, Twee- dle- dum, Twee- dle-|dum, Twee- dle- dum, Twee- dle-|
 F,2 F,F, F,2 F,F, | F,6 z2 | E,2 E,E, E,2 E,2 | D,2 D,2 D,4 | C,2 C,C, C,2 C,2 |!p! B,,6 B,,2 | %92
w: dum, Twee- dle- dum, Twee- dle-|dum.|Strange that such high dis-|putes should be|'twixt Twee- dle- dum and|Twee- dle-|
 B,,4 z2!mf! B,,2 | C,D, !wedge!E,2 D,E, !wedge!F,2 | E,F, !wedge!G,2 F,E, !wedge!D,2 | %95
w: dee, 'twixt|Twee- dle- dum, Twee- dle- dum,|Twee- dle- dum, Twee- dle- dum,|
 E,D, !wedge!C,2 D,C, !wedge!B,,2 | C,D, !wedge!E,2 z2!p! ^G,,2 | %97
w: Twee- dle- dum, Twee- dle- dum,|Twee- dle- dum and|
 A,,B,, !wedge!C,2 B,,C, !wedge!D,2 | C,D, !wedge!E,2 D,C, !wedge!B,,2 | %99
w: Twee- dle- dee, Twee- dle- dee,|Twee- dle- dee, Twee- dle- dee,|
 C,B,, !wedge!A,,2 B,,A,, !wedge!^G,,2 | A,,B,, !wedge!C,2 z4 | z4!f! ^F,4 | G,6 G,,2 | C,8 |] %104
w: Twee- dle- dee, Twee- dle- dee,|Twee- dle- dee,|and|Twee- dle-|dee.|

